X:1
T:7 Lieder, Op.48
T:Herbstgefühl
T:7. Herbstgefühl
T:Johannes Brahms
T:Adolf Friedrich von Schack
T:7 Lieder, Op.48
T:Creative Commons copyright waiver (CC0 1.0 Universal) 
T:Creative Commons copyright waiver (CC0 1.0 Universal) 
T:Creative Commons copyright waiver (CC0 1.0 Universal) 
T:Creative Commons copyright waiver (CC0 1.0 Universal) 
C:Johannes Brahms
Z:Adolf Friedrich von Schack
Z:Creative Commons copyright waiver (CC0 1.0 Universal)
Z:
L:1/8
M:3/4
K:A
V:1 treble nm="Singstimme\nVoice"
V:1
 z6 | z6 | z6 | z2 z2 c2 | c4 c2 | d4 c2 | d4 B2 | d4 A2 | z2 z2 A2 | A4 A2 | c4 B2 | c4 G2 | %12
w: |||Wie|wenn im|frost- gen|Wind- hauch|töd- lich|des|Som- mers|letz- te|Blü- te|
 A4 z2 | z2 z2 A2 | A4 =G2 | A4 E2 | G6 | z2 z2 E2 | F4 D2 | z2 z2 F2 | A6- | A4 F2 | D4 z2 | %23
w: krankt,|und|hier und|da nur,|gelb|und|röt- lich,|ein|einz-|* les|Blatt,|
 z2 z2 B2 | (d6- | d2 c2) B2 | B6 | A6 | (G2 A2 G2 | B2 A2) G2 | A6- | A2 z2 z2 | z2 z2 d2 | %33
w: ein|einz-|* * les|Blatt|im|Wind- * *|* * hauch|schwankt,||so|
 (d2 =c2) _B2 | A2 =G2 A2 | =F2 D2 z2 | z2 z2 d2 | (_e2 d2) e2 | (d2 c2) d2 | (c2 =c2 B2 | %40
w: schau- * ert|ü- ber mein|Le- ben|ein|näch- * tig|trü- * ber,|kal- * *|
 _B2 F2) =G2 | d4 z2 | z2 z2 =G2 | d4 c2 | d4 A2 | (A6- | A2 _B2) =G2 | =G6 | =F2 z2 F2 | E6 | %50
w: * * ter|Tag,|war-|um noch|vor dem|To-|* * de|be-|ben o|Herz,|
 z2 z2 d2 | c4 =B2 | A4 ^A2 | =B6- | B4 =G2 | F4 z2 | z6 | z6 | z6 | z6 | z6 | z2 z2 c2 | c4 c2 | %63
w: o|Herz, mit|dei- nem|ew-|* gen|Schlag!||||||Sieh|rings ent-|
 d4 c2 | d4 B2 | d4 A2 | z2 z2 A2 | A4 A2 | c4 B2 | c4 G2 | A4 z2 | z2 z2 A2 | A4 =G2 | A4 E2 | %74
w: blät- tert|das Ge-|stäu- de!|Was|spielst du,|wie der|Wind am|Strauch,|noch|mit der|letz- ten|
 ^G6- | G2 z2 E2 | F4 D2 | z6 ||[M:6/4] z6 F6 | E6 D6 | D6- D4 z2 | z6 d6 | B6- B4 z2 | A12 | %84
w: wel-|* ken|Freu- de?||Gib|dich zur|Ruh, _|bald|stirbt, _|bald|
 (G6- G2 A2 G2 | (2:3:2B2 A2) G6 | F4 z2 z6 | z12 | z12 | z12 |] %90
w: stirbt _ _ _|_ _ sie|auch.||||

